Obsidian-SemiLight/actions/22s/question.svg

<svg viewBox="0 0 22 22" xmlns="http://www.w3.org/2000/svg"><path d="m10.96875 3c-1.75093 0-3.40688.4216019-4.96875 1.2636719l.7773438 1.7871093c.7809199-.3835199 1.4827018-.6574787 2.1074218-.8242187.63297-.16673 1.2779264-.25 1.9355464-.25.986441 0 1.743422.2202494 2.269532.6621094.5261.44187.789062 1.0750006.789062 1.9003906 0 .44187-.056795.8305625-.171875 1.1640625-.11508.33348-.312307.66651-.591797 1-.27948.33349-.867671.883351-1.763672 1.650391-1.100079 1.00333-2.251102 2.785484-2.351562 4.646484h2l-.005859-.03125c0-.75868.131471-1.367612.394531-1.826172.27128-.46689.813133-1.055002 1.626953-1.763672.99467-.84207 1.657528-1.47518 1.986328-1.90039.33704-.4252.587553-.8743797.751953-1.3496098.1645-.47523.246094-1.0217118.246094-1.6386718 0-1.41734-.44773-2.5190444-1.34375-3.3027344-.89601-.79204-2.12564-1.1875-3.6875-1.1875zm-1.96875 14v2h2v-2z" fill="#4d4d4d"/></svg>

<svg xmlns="http://www.w3.org/2000/svg" viewBox="0 0 22 22">
  <defs id="defs3051">
    <style type="text/css" id="current-color-scheme">
      .ColorScheme-Text {
        color:#4d4d4d;
      }
      </style>
  </defs>
 <path 
    style="fill:currentColor;fill-opacity:1;stroke:none" 
    d="M 10.96875 3 C 9.21782 3 7.56187 3.4216019 6 4.2636719 L 6.7773438 6.0507812 C 7.5582637 5.6672613 8.2600456 5.3933025 8.8847656 5.2265625 C 9.5177356 5.0598325 10.162692 4.9765625 10.820312 4.9765625 C 11.806753 4.9765625 12.563734 5.1968119 13.089844 5.6386719 C 13.615944 6.0805419 13.878906 6.7136725 13.878906 7.5390625 C 13.878906 7.9809325 13.822111 8.369625 13.707031 8.703125 C 13.591951 9.036605 13.394724 9.369635 13.115234 9.703125 C 12.835754 10.036615 12.247563 10.586476 11.351562 11.353516 C 10.251483 12.356846 9.10046 14.139 9 16 L 11 16 L 10.994141 15.96875 C 10.994141 15.21007 11.125612 14.601138 11.388672 14.142578 C 11.659952 13.675688 12.201805 13.087576 13.015625 12.378906 C 14.010295 11.536836 14.673153 10.903726 15.001953 10.478516 C 15.338993 10.053316 15.589506 9.6041363 15.753906 9.1289062 C 15.918406 8.6536762 16 8.1071944 16 7.4902344 C 16 6.0728944 15.55227 4.97119 14.65625 4.1875 C 13.76024 3.39546 12.53061 3 10.96875 3 z M 9 17 L 9 19 L 11 19 L 11 17 L 9 17 z "
    class="ColorScheme-Text"
    />  
</svg>
